X: 1
T: Northside
M: 4/4
L: 1/8
R: reel
K: Amin
Addc d2 AB|c2 cA GECE|Addc d2 AB|cAGE ED D2|
Addc d2 AB|c2 cA GECE|F2 DE FGAd|cAGE ED D2:|
|:d2 ^fd ad^fd|c2 AB cdec|d2 ^fd ad^fd|g2 eg ^fdd^c|
d2 ^fd ad^fd|c2 AB cdeg|(3ag^f ge d2 Ad|cAGE ED D2:|
